svg/fluentui-system-icons/ic_fluent_location_20_regular.svg

<svg width="20" height="20" viewBox="0 0 20 20" fill="none" xmlns="http://www.w3.org/2000/svg">
<path d="M13 9C13 10.6569 11.6569 12 10 12C8.34315 12 7 10.6569 7 9C7 7.34315 8.34315 6 10 6C11.6569 6 13 7.34315 13 9ZM12 9C12 7.89543 11.1046 7 10 7C8.89543 7 8 7.89543 8 9C8 10.1046 8.89543 11 10 11C11.1046 11 12 10.1046 12 9ZM14.9497 13.955C17.6834 11.2201 17.6834 6.78601 14.9497 4.05115C12.2161 1.31628 7.78392 1.31628 5.05025 4.05115C2.31658 6.78601 2.31658 11.2201 5.05025 13.955L6.57128 15.4538L8.61408 17.4389L8.74691 17.5567C9.52168 18.1847 10.6562 18.1455 11.3861 17.4391L13.8223 15.0691L14.9497 13.955ZM5.75499 4.75619C8.09944 2.41072 11.9006 2.41072 14.245 4.75619C16.5294 7.04153 16.5879 10.7104 14.4207 13.0667L14.245 13.2499L12.9237 14.5539L10.6931 16.7225L10.6002 16.8021C10.2459 17.0699 9.7543 17.0698 9.40012 16.802L9.30713 16.7224L6.3263 13.817L5.75499 13.2499L5.57927 13.0667C3.41208 10.7104 3.47065 7.04153 5.75499 4.75619Z" fill="#212121"/>
</svg>

<svg xmlns="http://www.w3.org/2000/svg" width="20" height="20"><path d="M13 9a3 3 0 1 1-6 0 3 3 0 0 1 6 0Zm-1 0a2 2 0 1 0-4 0 2 2 0 0 0 4 0Zm2.95 4.955a7.005 7.005 0 0 0 0-9.904 6.998 6.998 0 0 0-9.9 0 7.005 7.005 0 0 0 0 9.904l1.521 1.499 2.043 1.985.133.118c.775.628 1.91.588 2.64-.118l2.435-2.37 1.128-1.114ZM5.755 4.756a6.002 6.002 0 0 1 8.49 0 6.008 6.008 0 0 1 .176 8.31l-.176.184-1.321 1.304-2.23 2.168-.094.08a.997.997 0 0 1-1.2 0l-.093-.08-2.98-2.905-.572-.567-.176-.183a6.008 6.008 0 0 1 .176-8.31Z"/></svg>
